X: 1
T: Colonel Robertson
M: 6/8
L: 1/8
R: jig
K: Dmaj
a|:fed A2d|BGB A2a|fed A2d|c2e e2a|
fed A2d|BGB A2d|BGd cAe|d3 d2a|
fed A2d|BGB A2a|fed afd|c2e e2a|
fed A2d|BGB A2d|BGd cAe|d3 d2g||
|:afd f2a|fef def|gfg ecA|1gfg e2g|
afd f2a|fef d2A|BGd cAe|d3 d2g:|
[2gfg e2A|dfd ege|faf d2A|BGd cAe|d3 d2A||
|:dfA egA|faf d2f|eac B2A|faf e2A|
dfA egA|faf d2A|BGd cAe|1d3 d2A:|2d3 d2||
